gama.ui.shared/icons_svg/dark/gaml/_aspect.svg

<?xml version="1.0" encoding="UTF-8" standalone="no"?>
<!DOCTYPE svg PUBLIC "-//W3C//DTD SVG 1.1//EN" "http://www.w3.org/Graphics/SVG/1.1/DTD/svg11.dtd">
<svg xmlns:dc="http://purl.org/dc/elements/1.1/" xmlns:xl="http://www.w3.org/1999/xlink" version="1.1" xmlns="http://www.w3.org/2000/svg" viewBox="-813.5871 -2833.0862 24 18" width="24" height="18">
  <defs/>
  <g id="SOURCES" stroke-dasharray="none" stroke="none" stroke-opacity="1" fill="none" fill-opacity="1">
    <title>SOURCES</title>
    <g id="SOURCES_New">
      <title>New</title>
      <g id="Group_10465">
        <g id="Graphic_10119"/>
        <g id="Group_10025">
          <title>user-circle</title>
          <g id="Graphic_10026">
            <path d="M -802.0091 -2820.991 L -804.4311 -2822.09 C -803.6121 -2822.727 -803.0871 -2823.728 -803.0871 -2824.848 C -803.0871 -2826.78 -804.6551 -2828.348 -806.5871 -2828.348 C -808.5191 -2828.348 -810.0871 -2826.78 -810.0871 -2824.848 C -810.0871 -2823.728 -809.5621 -2822.727 -808.7431 -2822.09 L -811.1651 -2820.991 C -811.3961 -2820.886 -811.5991 -2820.732 -811.7601 -2820.55 C -812.4741 -2821.572 -812.8941 -2822.811 -812.8941 -2824.155 C -812.8941 -2827.634 -810.0731 -2830.455 -806.5941 -2830.455 C -803.1151 -2830.455 -800.2941 -2827.634 -800.2941 -2824.155 C -800.2941 -2822.818 -800.7141 -2821.572 -801.4211 -2820.55 C -801.5821 -2820.739 -801.7851 -2820.886 -802.0161 -2820.991 M -809.3871 -2824.848 C -809.3871 -2826.395 -808.1341 -2827.648 -806.5871 -2827.648 C -805.0401 -2827.648 -803.7871 -2826.395 -803.7871 -2824.848 C -803.7871 -2823.301 -805.0401 -2822.048 -806.5871 -2822.048 C -808.1341 -2822.048 -809.3871 -2823.301 -809.3871 -2824.848 M -806.5871 -2817.848 C -808.4701 -2817.848 -810.1571 -2818.674 -811.3121 -2819.976 C -811.2071 -2820.137 -811.0531 -2820.27 -810.8711 -2820.347 L -808.0151 -2821.649 C -807.5811 -2821.453 -807.0981 -2821.348 -806.5871 -2821.348 C -806.0761 -2821.348 -805.5931 -2821.453 -805.1591 -2821.649 L -802.3031 -2820.347 C -802.1211 -2820.263 -801.9741 -2820.137 -801.8621 -2819.976 C -803.0171 -2818.667 -804.7041 -2817.848 -806.5871 -2817.848 M -806.5871 -2831.148 C -810.4511 -2831.148 -813.5871 -2828.012 -813.5871 -2824.148 C -813.5871 -2820.284 -810.4511 -2817.148 -806.5871 -2817.148 C -802.7231 -2817.148 -799.5871 -2820.284 -799.5871 -2824.148 C -799.5871 -2828.012 -802.7231 -2831.148 -806.5871 -2831.148" fill="#999"/>
          </g>
        </g>
      </g>
    </g>
  </g>
</svg>

<svg height="18" viewBox="-813.587 -2833.086 24 18" width="24" xmlns="http://www.w3.org/2000/svg"><path d="m-802.0091-2820.991-2.422-1.099c.819-.637 1.344-1.638 1.344-2.758 0-1.932-1.568-3.5-3.5-3.5s-3.5 1.568-3.5 3.5c0 1.12.525 2.121 1.344 2.758l-2.422 1.099c-.231.105-.434.259-.595.441-.714-1.022-1.134-2.261-1.134-3.605 0-3.479 2.821-6.3 6.3-6.3s6.3 2.821 6.3 6.3c0 1.337-.42 2.583-1.127 3.605-.161-.189-.364-.336-.595-.441m-7.371-3.857c0-1.547 1.253-2.8 2.8-2.8s2.8 1.253 2.8 2.8-1.253 2.8-2.8 2.8-2.8-1.253-2.8-2.8m2.8 7c-1.883 0-3.57-.826-4.725-2.128.105-.161.259-.294.441-.371l2.856-1.302c.434.196.917.301 1.428.301s.994-.105 1.428-.301l2.856 1.302c.182.084.329.21.441.371-1.155 1.309-2.842 2.128-4.725 2.128m0-13.3c-3.864 0-7 3.136-7 7s3.136 7 7 7 7-3.136 7-7-3.136-7-7-7" fill="#999"/></svg>
